X: 25438
T: Marcha De Lousame
R: reel
M: 4/4
K: Gmajor
A2 AF GFED|B2 BA GDGB|A2 AF GFED|B2 BA G2 (3GAB|
c2 cB BAGF|d2d2 dBcd|e2 dc BABc|dedB G2 (3dBd|
e2 dc BABc|d2d2d3d|e2 ed effd|g3f/e/ de=fd|
e2 ed fafd|g3f/e/ de=fd|e=fed cdec|dedc BcdB|
cdcB ABcA|BcBA GABG|ABAG FGAF|G2G2G2 FG||

